lib/svgs/meal.svg

<svg xmlns="http://www.w3.org/2000/svg" viewBox="0 0 20 20">
    <path fill="#000" fill-rule="evenodd" d="M14.6490967,5 L4.85482474,5 C3.62523113,5 2.6192,6.00603113 2.6192,7.23562474 L2.6192,13.4640753 C2.6192,14.6936689 3.62523113,15.6997 4.85482474,15.6997 L14.6490967,15.6997 C15.8786903,15.6997 16.8847215,14.6936689 16.8847215,13.4640753 L16.8847215,7.23562474 C16.8847215,6.00603113 15.8786903,5 14.6490967,5 L14.6490967,5 L14.6490967,5 Z M14.6490967,14.3583252 L4.85482474,14.3583252 C4.36969417,14.3583252 3.96057484,13.9492058 3.96057484,13.4640753 L3.96057484,12.3686191 L15.5433466,12.3686191 L15.5433466,13.4640753 C15.5433466,13.9492058 15.1342273,14.3583252 14.6490967,14.3583252 L14.6490967,14.3583252 L14.6490967,14.3583252 Z M3.96057484,10.7220815 C3.96728172,10.7153746 3.97734203,10.713139 3.98516672,10.7064321 L5.26506188,9.42541917 C5.42490905,9.265572 5.70324433,9.265572 5.86197368,9.42541917 L6.37057831,9.93290599 C7.03567667,10.5991222 8.19820154,10.5991222 8.86441771,9.93290599 L9.41326358,9.38517793 C9.57199294,9.22644857 9.85032822,9.22533076 10.0090576,9.38517793 L10.5579034,9.93290599 C11.2453581,10.6203606 12.3642882,10.6203606 13.0528607,9.93290599 L13.6005887,9.38517793 C13.7649071,9.22085951 14.0320643,9.21974169 14.1975005,9.38517793 L15.5187547,10.7064321 C15.5265794,10.713139 15.5355219,10.7153746 15.5433466,10.7220815 L15.5433466,11.0283621 L3.96057484,11.0283621 L3.96057484,10.7220815 L3.96057484,10.7220815 L3.96057484,10.7220815 Z M4.85482474,6.34137484 L14.6490967,6.34137484 C15.1342273,6.34137484 15.5433466,6.75161198 15.5433466,7.23562474 L15.5433466,8.83297861 L15.1465232,8.43615522 C14.4791892,7.76993905 13.3177822,7.77105686 12.6526838,8.43615522 L12.103838,8.9850011 C11.9439908,9.14373045 11.6656555,9.14373045 11.5069261,8.9850011 L10.9580803,8.43615522 C10.2929819,7.76993905 9.13045705,7.76993905 8.46424088,8.43615522 L7.91539501,8.9850011 C7.75666565,9.14484827 7.47944818,9.14484827 7.31960101,8.9850011 L6.81099639,8.47639647 C6.12354178,7.78894186 5.0046116,7.78782405 4.31715699,8.47639647 L3.96057484,8.83297861 L3.96057484,7.23562474 C3.96057484,6.75161198 4.36969417,6.34137484 4.85482474,6.34137484 L4.85482474,6.34137484 L4.85482474,6.34137484 Z"/>
</svg>

<svg xmlns="http://www.w3.org/2000/svg" viewBox="0 0 20 20">
    <path fill="#000" fill-rule="evenodd" d="M14.65 5H4.854a2.242 2.242 0 0 0-2.236 2.236v6.228A2.242 2.242 0 0 0 4.855 15.7h9.794a2.242 2.242 0 0 0 2.236-2.236V7.236A2.242 2.242 0 0 0 14.649 5m0 9.358H4.855a.906.906 0 0 1-.894-.894V12.37h11.582v1.095c0 .485-.409.894-.894.894M3.961 10.722c.006-.007.016-.009.024-.016l1.28-1.28c.16-.16.438-.16.597 0l.509.507a1.806 1.806 0 0 0 2.493 0l.55-.548a.431.431 0 0 1 .595 0l.549.548a1.767 1.767 0 0 0 2.495 0l.548-.548a.422.422 0 0 1 .597 0l1.32 1.321c.009.007.018.01.025.016v.306H3.961v-.306m.894-4.38h9.794c.485 0 .894.41.894.894v1.597l-.396-.397a1.807 1.807 0 0 0-2.494 0l-.55.549a.434.434 0 0 1-.596 0l-.549-.549a1.806 1.806 0 0 0-2.494 0l-.549.549a.43.43 0 0 1-.595 0l-.509-.509a1.765 1.765 0 0 0-2.494 0l-.356.357V7.236c0-.484.409-.895.894-.895"/>
</svg>
